icons/DENO-Dark.svg

<svg xmlns="http://www.w3.org/2000/svg" width="256" height="256" fill="none" viewBox="0 0 256 256"><rect width="256" height="256" fill="#242938" rx="60"/><path fill="#fff" d="M118.032 26.656C117.554 26.704 116.032 26.882 114.656 27.008C95.102 29.054 75.844 37.336 60.14 50.484C57.242 52.89 50.64 59.492 48.234 62.39C35.234 77.922 27.634 95.35 24.828 115.976C24.204 120.556 24.204 136.008 24.828 140.586C27.632 161.21 35.234 178.64 48.234 194.172C50.64 197.072 57.242 203.672 60.14 206.078C75.672 219.078 93.1 226.678 113.726 229.484C118.306 230.11 133.758 230.11 138.336 229.484C158.96 226.68 176.39 219.078 191.922 206.078C194.822 203.672 201.422 197.07 203.828 194.172C216.828 178.64 224.428 161.212 227.228 140.586C227.86 136.006 227.86 120.554 227.228 115.976C224.428 95.352 216.828 77.922 203.828 62.39C201.422 59.492 194.82 52.89 191.922 50.484C176.446 37.532 158.836 29.836 138.484 27.11C136.282 26.804 133.086 26.68 127.156 26.632C122.632 26.578 118.5 26.61 118.032 26.656V26.656ZM119.282 37.46C119.282 40.382 119.476 46.734 119.758 52.766C119.906 55.71 120.078 59.938 120.158 62.14C120.43 69.946 121.258 90.42 121.382 92.25L121.508 94.07L120.382 93.946C119.758 93.898 119.18 93.75 119.078 93.672C119.008 93.572 118.828 91.844 118.726 89.82C118.282 80.92 116.806 46.382 116.656 41.336L116.5 35.782L117.204 35.688C117.578 35.632 118.204 35.562 118.602 35.532L119.282 35.508V37.46ZM143.21 36.86C143.234 36.882 143.312 44.438 143.382 53.64C143.484 62.868 143.61 71.14 143.688 72.04C143.758 72.968 143.734 73.766 143.608 73.82C143.508 73.89 142.882 73.89 142.258 73.82L141.11 73.72L140.938 66.438C140.857 63.1304 140.763 59.823 140.658 56.516C140.46 52.086 140.282 37.062 140.438 36.688C140.532 36.408 140.812 36.382 141.858 36.562C142.586 36.71 143.188 36.836 143.21 36.86V36.86ZM85.368 45.234C85.524 45.46 86.696 59.242 88.148 77.266C88.626 83.398 89.094 89 89.172 89.696C89.296 90.968 89.272 91.024 88.468 91.524C88.024 91.796 87.57 92.024 87.468 92.024C87.398 92.024 87.25 91.374 87.172 90.57C86.82 87.32 85.468 71.618 84.524 60.266C83.968 53.586 83.468 47.61 83.398 46.96C83.274 45.86 83.298 45.758 83.946 45.414C84.742 44.984 85.196 44.914 85.366 45.234H85.368ZM154.21 50.266C154.914 50.516 154.984 50.64 155.14 52.062C155.39 54.562 155.312 66.516 155.04 66.516C154.312 66.516 152.812 65.664 152.688 65.188C152.608 64.89 152.54 61.344 152.54 57.312C152.54 49.188 152.438 49.664 154.21 50.266ZM108.024 51.438C108.024 52.11 108.204 55.836 108.398 59.766C108.602 63.686 108.828 68.664 108.93 70.82C109.102 75.172 109.15 75.016 107.476 75.118C106.648 75.14 106.648 75.14 106.602 73.89C106.554 73.196 106.43 71.016 106.274 69.016C106.148 67.016 105.852 62.688 105.648 59.39C105.512 56.9608 105.338 54.5338 105.126 52.11C104.976 50.86 105 50.812 105.672 50.562C106.078 50.414 106.772 50.29 107.226 50.29C108.024 50.266 108.024 50.266 108.024 51.438V51.438ZM177.39 54.868L178.242 55.21L178.422 58.562C178.492 60.39 178.546 64.342 178.492 67.322L178.422 72.766L177.368 72.242L176.32 71.742L176.242 63.438C176.196 58.868 176.218 54.992 176.266 54.812C176.366 54.438 176.366 54.438 177.39 54.868ZM131.734 58.14C131.882 58.29 132.234 70.414 132.258 76.57L132.282 80.274L131.11 80.094C130.43 80.014 129.882 79.946 129.86 79.922C129.78 79.868 129.032 61.342 129.032 59.54V57.688L130.304 57.836C131.032 57.936 131.656 58.062 131.734 58.14V58.14ZM189.32 59.914C189.626 60.266 189.672 65.742 189.75 95.946C189.82 130.632 189.82 131.532 189.374 131.532C189.055 131.512 188.748 131.398 188.494 131.204C188.118 130.93 188.07 127.906 187.946 98.274C187.844 80.32 187.718 64.014 187.648 62.04L187.492 58.438L188.218 58.96C188.648 59.266 189.126 59.688 189.32 59.914V59.914ZM166.89 65.04C167.016 65.14 167.14 66.562 167.164 68.196C167.29 73.718 167.312 107.602 167.188 107.704C167.14 107.75 166.688 107.624 166.188 107.43L165.288 107.054V64.514L165.992 64.664C166.368 64.764 166.766 64.914 166.892 65.04H166.89ZM97.876 66.438C97.946 67.118 98.07 68.64 98.148 69.89C98.228 71.118 98.398 73.922 98.548 76.094C98.852 80.494 98.796 80.774 97.374 80.774C96.626 80.774 96.524 80.694 96.422 79.946C96.172 78.468 95.296 66.164 95.422 65.968C95.546 65.788 96.852 65.344 97.446 65.288C97.602 65.266 97.796 65.788 97.876 66.438V66.438ZM56.516 72.82C56.79 75.468 57.336 81.024 57.742 85.148C58.164 89.274 58.516 92.774 58.516 92.922C58.516 93.226 56.586 94.172 56.39 93.976C56.266 93.852 53.766 71.718 53.766 70.718C53.766 70.118 55.686 67.594 55.938 67.868C56.016 67.914 56.266 70.14 56.516 72.82V72.82ZM154.562 75.446L155.29 75.866L155.312 81.274C155.336 84.218 155.392 87.524 155.392 88.594C155.438 90.844 155.164 91.218 153.812 90.75L153.04 90.47V88.32C153.04 87.126 152.96 83.648 152.86 80.57L152.71 75.016H153.29C153.586 75.016 154.164 75.218 154.562 75.446V75.446ZM67.492 85.148C67.946 89.946 68.664 98.048 69.14 103.148L69.992 112.408L69.016 113.374L68.07 114.352L67.89 112.374C67.79 111.274 67.29 106.18 66.766 101.024C66.2007 95.4916 65.6514 89.9576 65.118 84.422L64.414 77.218L65.39 76.32C66.266 75.492 66.368 75.468 66.54 75.92C66.64 76.172 67.062 80.32 67.492 85.148V85.148ZM48.766 88.172C49.312 93.102 50.766 106.204 52.016 117.282C53.266 128.36 54.436 139.032 54.664 141.032C54.868 143.032 55.21 146.062 55.414 147.79C55.766 150.71 55.766 150.914 55.368 151.21C54.766 151.664 54.516 151.61 54.516 151.086C54.516 150.86 54.29 148.96 54.016 146.914C53.562 143.484 52.812 137.68 51.14 124.656C50.6247 120.783 50.1247 116.909 49.64 113.032C49.14 109.25 48.414 103.626 48.008 100.524C47.608 97.422 46.938 92.124 46.508 88.696C46.062 85.296 45.788 82.274 45.86 81.946C46.04 81.274 47.508 78.922 47.664 79.07C47.71 79.14 48.21 83.218 48.764 88.17L48.766 88.172ZM41.11 98.946C41.484 101.954 42.188 107.43 42.664 111.148C43.132 114.852 43.734 119.476 44.008 121.408L44.484 124.908L43.96 125.36C43.664 125.61 43.36 125.704 43.258 125.61C43.164 125.508 42.96 124.508 42.812 123.406C42.1365 118.651 41.4439 113.898 40.734 109.148L38.96 96.898L39.532 95.196C39.836 94.274 40.156 93.524 40.234 93.524C40.336 93.524 40.71 95.976 41.11 98.944V98.946ZM178.39 95.672C178.742 96.024 178.796 97.572 178.796 109.054V122.032H178.094C176.57 122.032 176.594 122.406 176.494 108.204L176.422 95.274H177.218C177.64 95.274 178.196 95.446 178.39 95.672V95.672ZM123.656 100.148C129.304 101 134.236 102.578 139.11 105.078C142.258 106.704 143.758 107.828 147.258 111.178C152.46 116.158 155.664 120.508 158.664 126.658C163.04 135.61 164.744 143.532 166.89 164.79C167.868 174.32 169.14 191.594 169.414 198.67C169.494 200.726 169.664 204.102 169.82 206.17C170.094 210.578 170.414 209.976 166.54 211.85C161.164 214.454 155.984 216.25 149.164 217.93C140.812 219.976 135.406 220.624 127.156 220.656L121.156 220.68L121.204 217.804C121.204 216.226 121.352 212.554 121.508 209.68C122.258 195.75 122.102 178.172 121.132 168.414C120.578 162.814 119.508 156.014 118.906 154.514C118.782 154.188 119.352 153.914 121.828 153.062C126.36 151.484 130.282 149.508 130.882 148.54C131.962 146.688 130.032 144.032 127.578 144.032C127.158 144.032 125.882 144.484 124.704 145.008C119.102 147.586 107.876 150.608 101.398 151.288C96.922 151.766 89.968 151.484 85.148 150.608C82.524 150.132 77.82 148.36 73.89 146.336C69.368 143.984 66.594 140.86 65.766 137.156C65.312 135.156 65.438 131.156 66.016 128.906C66.64 126.43 68.39 122.828 69.992 120.726C77.118 111.352 91.82 103.226 106.898 100.376C111.704 99.476 118.5 99.376 123.658 100.148H123.656ZM200.796 100.922C201.696 101.296 201.796 101.398 201.796 102.25C201.852 109.078 201.696 124.68 201.57 125.33C201.546 125.554 200.25 125.578 199.696 125.382C199.352 125.258 199.296 123.906 199.296 112.874C199.296 104.976 199.398 100.524 199.546 100.524C199.672 100.524 200.25 100.704 200.796 100.922V100.922ZM211.726 114.656L212.626 115.032L212.454 135.734C212.25 162.118 212.226 162.89 211.274 165.164C209.726 168.89 209.804 169.64 209.954 153.29C210 145.11 210.124 136.836 210.18 134.906C210.226 132.986 210.274 127.554 210.304 122.828C210.304 117.124 210.374 114.282 210.554 114.282C210.704 114.282 211.226 114.454 211.726 114.656ZM61.344 120.882C61.492 122.906 61.438 123.102 60.71 124.702L59.914 126.406L59.618 123.906C59.14 119.906 59.14 119.726 60.086 119.132C60.516 118.828 60.968 118.632 61.04 118.68C61.118 118.726 61.266 119.726 61.344 120.882V120.882ZM45.884 135.962C46.11 138.008 47.86 151.61 48.764 158.29C50.11 168.618 50.21 170.094 49.61 169.47C49.54 169.39 48.96 165.914 48.36 161.742C44.46 134.782 44.484 134.962 44.812 134.758C45.484 134.304 45.712 134.554 45.882 135.96L45.884 135.962ZM63.89 147.414C64.04 148.04 64.766 154.814 64.766 155.64C64.766 156.336 63.866 156.992 63.468 156.586C63.344 156.46 63.016 154.336 62.766 151.89C62.492 149.414 62.218 146.836 62.14 146.164L61.992 144.914L62.868 145.914C63.368 146.46 63.812 147.134 63.89 147.414V147.414ZM84.07 156.836C84.344 157.086 84.524 158.086 84.742 160.79C85.118 165.664 85.172 165.29 84.148 165.29C83.094 165.29 83.118 165.368 82.774 160.96C82.422 156.484 82.422 156.54 83.094 156.54C83.422 156.54 83.844 156.688 84.07 156.836ZM103.876 157.21C103.922 157.46 104.046 158.96 104.148 160.54C104.228 162.118 104.454 165.664 104.648 168.414C105.352 178.514 105.376 179.796 104.954 179.796C104.476 179.796 104.422 179.422 103.874 172.29C103.631 168.844 103.355 165.401 103.046 161.96C102.828 159.242 102.672 156.96 102.75 156.914C103.024 156.61 103.75 156.836 103.876 157.21ZM56.868 162.016C57.016 162.242 57.96 170.242 59.14 181.172C59.492 184.468 59.836 187.648 59.914 188.242L60.04 189.322L59.414 188.922C58.938 188.594 58.766 188.274 58.766 187.696C58.766 186.116 57.686 175.742 56.866 169.39C56.39 165.79 56.016 162.618 56.016 162.312C56.016 161.79 56.616 161.586 56.868 162.016V162.016ZM201.172 172.468L201 182.922L200.374 183.842C198.946 185.946 199.024 186.342 199.102 174.642L199.148 163.914L200.07 162.96C200.57 162.46 201.07 162.04 201.17 162.04C201.25 162.04 201.25 166.742 201.17 172.468H201.172ZM178.046 189.048C178.172 203.578 178.14 204.704 177.742 205.148C177.492 205.422 177.266 205.602 177.196 205.524C177.016 205.328 176.766 173.64 176.968 173.468C177.07 173.368 177.32 173.32 177.548 173.344C177.868 173.414 177.946 175.196 178.048 189.046L178.046 189.048ZM96.376 179.094C96.546 180.64 97.172 188.07 97.422 191.57C97.57 193.922 97.57 194 97.022 194.17C96.726 194.274 96.374 194.25 96.274 194.126C96.102 193.946 95.546 188.398 94.874 179.844L94.694 177.796H95.476C96.196 177.796 96.25 177.844 96.376 179.094V179.094ZM76.718 187.844C76.89 188.024 77.016 188.648 77.016 189.274C77.016 189.922 77.32 193.296 77.64 196.796C78.594 206.376 78.672 207.672 78.242 207.422C77.594 207.046 77.016 206.476 77.142 206.328C77.196 206.228 77.094 204.976 76.89 203.548C76.6881 201.801 76.5214 200.05 76.39 198.296C76.296 196.852 76.07 194.196 75.868 192.422C75.39 188.046 75.422 187.546 75.968 187.546C76.2452 187.554 76.5108 187.66 76.718 187.844V187.844ZM88.546 204.672C88.626 205.226 88.774 207.272 88.874 209.226C89.046 212.976 88.968 213.25 87.946 212.476C87.648 212.25 87.446 211.304 87.148 208.454C86.626 203.296 86.594 203.5 87.57 203.602C88.296 203.672 88.398 203.774 88.546 204.672Z"/><path fill="#fff" d="M79.618 112.126C77.016 113.25 76.82 116.782 79.266 118.032C81.046 118.93 82.844 118.5 83.774 116.952C85.524 114.102 82.672 110.804 79.618 112.126V112.126ZM96.57 114.532C94.17 116 94.17 119.554 96.57 121.032C98.946 122.452 102.024 120.578 102.024 117.726C102.024 114.976 98.874 113.126 96.57 114.532Z"/></svg>

<svg xmlns="http://www.w3.org/2000/svg" width="256" height="256" fill="none" viewBox="0 0 256 256"><rect width="256" height="256" fill="#242938" rx="60"/><path fill="#fff" d="M118.03 26.66c-.48.04-2 .22-3.37.35-19.56 2.04-38.82 10.33-54.52 23.47a135 135 0 0 0-11.9 11.91c-13 15.53-20.6 32.96-23.41 53.59-.63 4.58-.63 20.03 0 24.6 2.8 20.63 10.4 38.06 23.4 53.6 2.41 2.9 9.01 9.5 11.91 11.9 15.53 13 32.96 20.6 53.59 23.4 4.58.63 20.03.63 24.6 0 20.63-2.8 38.06-10.4 53.6-23.4a135 135 0 0 0 11.9-11.9c13-15.54 20.6-32.97 23.4-53.6.63-4.57.63-20.03 0-24.6-2.8-20.63-10.4-38.06-23.4-53.59a135 135 0 0 0-11.9-11.9c-15.48-12.96-33.1-20.65-53.45-23.38-2.2-.3-5.4-.43-11.32-.48a223 223 0 0 0-9.13.03m1.25 10.8c0 2.92.2 9.27.48 15.3.15 2.95.32 7.18.4 9.38.27 7.8 1.1 28.28 1.22 30.11l.13 1.82-1.13-.12c-.62-.05-1.2-.2-1.3-.28-.07-.1-.25-1.83-.35-3.85-.45-8.9-1.92-43.44-2.07-48.48l-.16-5.56.7-.1c.38-.05 1-.12 1.4-.15l.68-.02zm23.93-.6c.02.02.1 7.58.17 16.78.1 9.23.23 17.5.3 18.4.08.93.05 1.73-.07 1.78a4 4 0 0 1-1.35 0l-1.15-.1-.17-7.28q-.12-4.97-.28-9.92c-.2-4.43-.38-19.46-.22-19.83.1-.28.37-.3 1.42-.13.73.15 1.33.28 1.35.3m-57.84 8.37c.15.23 1.33 14.01 2.78 32.04a971 971 0 0 0 1.02 12.43c.13 1.27.1 1.32-.7 1.82-.45.28-.9.5-1 .5-.07 0-.22-.65-.3-1.45-.35-3.25-1.7-18.95-2.65-30.3-.55-6.68-1.05-12.66-1.12-13.31-.13-1.1-.1-1.2.55-1.55q1.18-.65 1.42-.18m68.84 5.04c.7.25.77.37.93 1.8.25 2.5.17 14.45-.1 14.45-.73 0-2.23-.86-2.35-1.33-.08-.3-.15-3.85-.15-7.88 0-8.12-.1-7.65 1.67-7.04m-46.19 1.17c0 .67.18 4.4.38 8.33s.43 8.9.53 11.05c.17 4.35.22 4.2-1.45 4.3-.83.02-.83.02-.88-1.23-.05-.7-.17-2.87-.33-4.87-.12-2-.42-6.33-.62-9.63q-.2-3.65-.52-7.28c-.15-1.25-.13-1.3.54-1.55.4-.15 1.1-.27 1.56-.27.8-.02.8-.02.8 1.15m69.37 3.43.85.34.18 3.35c.07 1.83.13 5.78.07 8.76l-.07 5.45-1.05-.53-1.05-.5-.08-8.3c-.04-4.57-.02-8.45.03-8.63.1-.37.1-.37 1.12.06m-45.66 3.27c.15.15.5 12.27.53 18.43l.02 3.7-1.17-.18c-.68-.08-1.23-.14-1.25-.17-.08-.05-.83-18.58-.83-20.38v-1.85l1.27.15c.73.1 1.36.22 1.43.3m57.59 1.77c.3.36.35 5.83.43 36.04.07 34.68.07 35.58-.38 35.58a1.6 1.6 0 0 1-.88-.33c-.37-.27-.42-3.3-.54-32.93-.1-17.95-.23-34.26-.3-36.23l-.16-3.6.73.52c.43.3.9.73 1.1.95m-22.43 5.13c.13.1.25 1.52.27 3.16.13 5.52.15 39.4.03 39.5-.05.05-.5-.08-1-.27l-.9-.38V64.51l.7.15c.38.1.78.25.9.38m-69.01 1.4c.07.68.19 2.2.27 3.45l.4 6.2c.3 4.4.25 4.68-1.18 4.68-.74 0-.85-.08-.95-.82a235 235 0 0 1-1-13.98 6 6 0 0 1 2.03-.68c.15-.02.35.5.43 1.15m-41.36 6.38 1.22 12.33c.42 4.12.78 7.62.78 7.77 0 .3-1.93 1.25-2.13 1.06a824 824 0 0 1-2.62-23.26c0-.6 1.92-3.13 2.17-2.85.08.04.33 2.27.58 4.95m98.04 2.63.73.42.02 5.4c.03 2.95.08 6.25.08 7.32.05 2.25-.23 2.63-1.58 2.16l-.77-.28v-2.15c0-1.2-.08-4.67-.18-7.75l-.15-5.55h.58c.3 0 .87.2 1.27.43m-87.07 9.7c.46 4.8 1.17 12.9 1.65 18l.85 9.26-.97.96-.95.98-.18-1.98c-.1-1.1-.6-6.19-1.12-11.35q-.86-8.3-1.65-16.6l-.7-7.2.97-.9c.88-.83.98-.85 1.15-.4.1.25.52 4.4.95 9.23m-18.72 3.02c.54 4.93 2 18.03 3.25 29.11s2.42 21.75 2.64 23.75c.2 2 .55 5.03.75 6.76.36 2.92.36 3.12-.04 3.42-.6.45-.85.4-.85-.12 0-.23-.23-2.13-.5-4.18-.46-3.43-1.2-9.23-2.88-22.25q-.78-5.81-1.5-11.63l-1.63-12.5-1.5-11.83a61 61 0 0 1-.65-6.75c.18-.68 1.65-3.03 1.8-2.88.05.07.55 4.15 1.1 9.1M41.1 98.95c.37 3 1.08 8.48 1.55 12.2.47 3.7 1.07 8.33 1.35 10.26l.47 3.5-.52.45c-.3.25-.6.34-.7.25s-.3-1.1-.45-2.2q-1.01-7.14-2.08-14.26L38.96 96.9l.57-1.7c.3-.93.63-1.68.7-1.68.1 0 .48 2.46.88 5.42m137.28-3.28c.35.35.4 1.9.4 13.38v12.98h-.7c-1.52 0-1.5.38-1.6-13.83l-.07-12.93h.8c.42 0 .98.18 1.17.4m-54.73 4.48a49 49 0 0 1 15.45 4.93c3.15 1.62 4.65 2.75 8.15 6.1 5.2 4.98 8.4 9.33 11.4 15.48 4.38 8.95 6.08 16.87 8.23 38.13a738 738 0 0 1 2.52 33.88c.08 2.06.25 5.43.41 7.5.27 4.4.6 3.8-3.28 5.68a84 84 0 0 1-17.38 6.08 83 83 0 0 1-22 2.73l-6 .02.04-2.88c0-1.57.15-5.25.3-8.12.76-13.93.6-31.5-.37-41.27-.55-5.6-1.62-12.4-2.22-13.9-.13-.32.44-.6 2.92-1.45 4.53-1.58 8.45-3.55 9.05-4.52 1.08-1.85-.85-4.5-3.3-4.5-.42 0-1.7.44-2.88.97-5.6 2.58-16.82 5.6-23.3 6.28a66 66 0 0 1-16.25-.68c-2.63-.48-7.33-2.25-11.26-4.27-4.52-2.36-7.3-5.48-8.12-9.18-.46-2-.33-6 .25-8.25a27 27 0 0 1 3.97-8.18c7.13-9.38 21.83-17.5 36.9-20.35 4.81-.9 11.61-1 16.77-.23m77.14.77c.9.38 1 .48 1 1.33.05 6.83-.1 22.43-.23 23.08-.02.22-1.32.25-1.87.05-.35-.12-.4-1.47-.4-12.5 0-7.9.1-12.36.25-12.36.12 0 .7.18 1.25.4m10.93 13.74.9.37-.18 20.7c-.2 26.39-.22 27.16-1.18 29.43-1.54 3.73-1.47 4.48-1.32-11.87.05-8.18.17-16.45.23-18.38s.1-7.36.12-12.08q-.01-8.55.25-8.55c.15 0 .68.17 1.18.38m-150.39 6.22c.15 2.03.1 2.22-.63 3.82l-.8 1.7-.3-2.5c-.47-4-.47-4.17.48-4.77.43-.3.88-.5.95-.45a9 9 0 0 1 .3 2.2m-15.46 15.08c.23 2.05 1.98 15.65 2.88 22.33 1.35 10.33 1.45 11.8.85 11.18-.07-.08-.65-3.56-1.25-7.73-3.9-26.96-3.88-26.78-3.55-26.98.67-.46.9-.2 1.07 1.2m18.01 11.45c.15.63.88 7.4.88 8.23 0 .7-.9 1.35-1.3.95-.13-.13-.45-2.25-.7-4.7l-.63-5.73-.15-1.25.88 1c.5.55.94 1.22 1.02 1.5m20.18 9.43c.27.25.45 1.25.67 3.95.38 4.87.43 4.5-.6 4.5-1.05 0-1.02.08-1.37-4.33-.35-4.48-.35-4.42.32-4.42.33 0 .75.15.98.3m19.8.37c.05.25.18 1.75.28 3.33.08 1.58.3 5.12.5 7.87.7 10.1.73 11.39.3 11.39-.47 0-.53-.38-1.08-7.51q-.36-5.17-.82-10.33c-.22-2.72-.38-5-.3-5.05.27-.3 1-.07 1.13.3m-47 4.8c.15.23 1.09 8.23 2.27 19.16l.77 7.07.13 1.08-.63-.4c-.47-.33-.64-.65-.64-1.22 0-1.58-1.08-11.96-1.9-18.31-.48-3.6-.85-6.77-.85-7.08 0-.52.6-.72.85-.3m144.3 10.46-.17 10.45-.63.92c-1.42 2.1-1.35 2.5-1.27-9.2l.05-10.73.92-.95c.5-.5 1-.92 1.1-.92.08 0 .08 4.7 0 10.43m-23.12 16.58c.12 14.53.09 15.65-.3 16.1-.26.27-.48.45-.55.37-.18-.2-.43-31.88-.23-32.05.1-.1.35-.15.58-.13.32.07.4 1.86.5 15.7m-81.67-9.96c.17 1.55.8 8.98 1.04 12.48.15 2.35.15 2.43-.4 2.6-.3.1-.65.08-.75-.04-.17-.18-.72-5.73-1.4-14.29l-.18-2.04h.79c.72 0 .77.04.9 1.3m-19.66 8.75c.17.18.3.8.3 1.43 0 .65.3 4.03.62 7.53.95 9.58 1.03 10.87.6 10.62-.65-.37-1.22-.94-1.1-1.1.06-.1-.05-1.34-.25-2.77q-.3-2.62-.5-5.25c-.1-1.45-.32-4.1-.52-5.88-.48-4.37-.45-4.87.1-4.87q.43 0 .75.3m11.83 16.83c.08.56.22 2.6.32 4.56.18 3.75.1 4.02-.92 3.25-.3-.23-.5-1.18-.8-4.03-.52-5.15-.56-4.95.42-4.85.73.07.83.17.98 1.07"/><path fill="#fff" d="M79.62 112.13c-2.6 1.12-2.8 4.65-.35 5.9 1.78.9 3.57.47 4.5-1.08a3.32 3.32 0 0 0-4.15-4.82m16.95 2.4a3.83 3.83 0 0 0 0 6.5c2.38 1.42 5.45-.45 5.45-3.3 0-2.75-3.15-4.6-5.45-3.2"/></svg>
